build/img/contacts/phone.svg

<svg width="19" height="19" viewBox="0 0 19 19" fill="none" xmlns="http://www.w3.org/2000/svg">
<path d="M17.4754 12.4713C16.3121 12.4713 15.17 12.2894 14.0876 11.9317C13.5573 11.7508 12.9053 11.9168 12.5816 12.2492L10.4452 13.8619C7.96766 12.5394 6.44153 11.0138 5.13706 8.5548L6.70233 6.4741C7.109 6.06798 7.25486 5.47472 7.0801 4.91808C6.72089 3.83003 6.53841 2.6884 6.53841 1.52465C6.53846 0.683951 5.85451 0 5.01386 0H1.5246C0.683949 0 0 0.683951 0 1.5246C0 11.1607 7.83936 19 17.4754 19C18.3161 19 19 18.316 19 17.4754V13.9959C19 13.1553 18.316 12.4713 17.4754 12.4713Z" fill="#C7C7D5"/>
</svg>

<svg width="19" height="19" fill="none" xmlns="http://www.w3.org/2000/svg"><path d="M17.475 12.471c-1.163 0-2.305-.182-3.387-.54-.53-.18-1.183-.014-1.506.318l-2.137 1.613c-2.477-1.323-4.003-2.848-5.308-5.307l1.565-2.08c.407-.407.553-1 .378-1.557a10.804 10.804 0 0 1-.542-3.393C6.538.684 5.855 0 5.014 0h-3.49C.685 0 0 .684 0 1.525 0 11.16 7.84 19 17.475 19c.841 0 1.525-.684 1.525-1.525v-3.48c0-.84-.684-1.524-1.525-1.524z" fill="#C7C7D5"/></svg>
